!!!COM:	la Rue, Pierre de
!!!CDT:	~1452///-1518/11/20
!!!OPR:	Missa Almana
!!!ONM:	3
!!!OTL:	Credo
!!!AGN:	Mass; Credo
!!!SCT:	Rue1002c
!!!SCA:	Rue1002c
!!!voices:	4
!!!voices-OPR:	4
**kern	**kern	**kern	**kern
*staff4	*staff3	*staff2	*staff1
*Ivox	*Ivox	*Ivox	*Ivox
*I"Bassus	*I"Tenor	*I"Contra	*I"Discantus
*I'B	*I'T	*I'C	*I'D
*>[A,B]	*>[A,B]	*>[A,B]	*>[A,B]
*>A	*>A	*>A	*>A
*clefF4	*clefGv2	*clefGv2	*clefG2
*k[b-]	*k[b-]	*k[b-]	*k[b-]
*M2/1	*M2/1	*M2/1	*M2/1
*met(C|)	*met(O)	*met(C|)	*met(C|)
!!primary-mensuration: met(C|)
!!incipit: 6
!!section: Patrem omnipotentem
!!!OMD: Patrem omnipotentem
!	!LO:TX:Z=10:t=MenCircle	!	!
*	*rscale:1/2	*	*
=1-	=1-	=1-	=1-
!	!LO:N:vis=0.	!	!
0BB-	0r	0r	0r
=2	=2-	=2	=2
1E-	0ryy	0r	0r
1E-i	.	.	.
=3	=3-	=3	=3
1D	0ryy	0F	0r
2D\	.	.	.
4E-i\	.	.	.
4F\	.	.	.
=4	=4	=4	=4
!	!LO:N:vis=0.	!	!
1G	0r	1B-	0r
1G	.	1B-	.
=5	=5-	=5	=5
0F	0ryy	1A	0r
.	.	2A/	.
.	.	4B-\	.
.	.	4c\	.
=6	=6-	=6	=6
1BB-	0ryy	1d	0r
2r	.	1d	.
2BB-/	.	.	.
=7	=7	=7	=7
!	!LO:N:vis=0.	!	!
2.F\	0r	1c	0r
4D\	.	.	.
2E\	.	2r	.
[2F\	.	2F/	.
=8	=8-	=8	=8
2F\]	0ryy	1c	0r
4E\	.	.	.
4D\	.	.	.
2C/	.	1c	.
[2F\	.	.	.
=9	=9-	=9	=9
4F\]	0ryy	2.c\	0r
4E\	.	.	.
4D\	.	.	.
4C/	.	4B-\	.
2D\	.	4A/	.
.	.	4G/	.
[2GG/	.	[2B-\	.
=10	=10	=10	=10
!	!LO:N:vis=0.	!	!
2GG/]	0r	2B-\]	0r
2BB-/	.	1G	.
1AA	.	.	.
.	.	2F/	.
=11	=11-	=11	=11
2GG/	0ryy	2G/	0r
4AA/	.	1C	.
4GG/	.	.	.
4AA/	.	.	.
4GG/	.	.	.
[2C/	.	2E/	.
=12	=12-	=12	=12
2C/]	0ryy	1D	0r
2BB-/	.	.	.
2C/	.	2C/	.
[2FF/	.	4D/	.
.	.	4C/	.
=13	=13	=13	=13
!	!LO:N:vis=0.	!	!
2FF/]	0r	4D/	0r
.	.	4C/	.
2AA/	.	1F	.
1GG	.	.	.
.	.	2E/	.
=14	=14-	=14	=14
1FF	0ryy	1F	1r
[1C	.	1G	[1e
=15	=15-	=15	=15
2C/]	0ryy	1r	2e/]
2C/	.	.	2e/
2C/	.	1G	2e/
2C/	.	.	2e/
=16	=16	=16	=16
!	!LO:N:vis=0.	!	!
2FF/	0r	2.A/	0f
1F	.	.	.
.	.	4B-\	.
.	.	2c\	.
2E\	.	[2c\	.
=17	=17-	=17	=17
1D	0ryy	2c\]	1f
.	.	2Bni\	.
2C/	.	1c	2.e/
[2C/	.	.	.
.	.	.	4f/
=18	=18-	=18	=18
2C/]	0ryy	0r	2g/
2BB-/	.	.	1g
1AA	.	.	.
.	.	.	2f#i/
=19	=19	=19	=19
!	!LO:N:vis=0.	!	!
1GG	0r	1G	1g
1r	.	2.A/	2c/
.	.	.	[2f/
.	.	4B-\	.
=20	=20-	=20	=20
0r	0ryy	2c\	2f/]
.	.	1c	2e/
.	.	.	1d
.	.	2Bni\	.
=21	=21-	=21	=21
1C	0ryy	1c	1c
2.D\	.	2F/	1r
.	.	[2B-\	.
4E\	.	.	.
=22	=22	=22	=22
!	!LO:N:vis=0.	!	!
2F\	0r	2B-\]	1r
1F	.	2A/	.
.	.	1G	1g
2E\	.	.	.
=23	=23-	=23	=23
0F	0ryy	2F/	2.a/
.	.	1f	.
.	.	.	4b-\
.	.	.	2cc\
.	.	2e\	[2cc\
=24	=24-	=24	=24
1G	0ryy	1d	2cc\]
.	.	.	2b-\
2A\	.	1c	1cc
[2F\	.	.	.
=25	=25	=25	=25
!	!LO:N:vis=0.	!	!
4F\]	0r	2.d\	2f/
4E\	.	.	.
4D\	.	.	1b-
4C/	.	4e\	.
2BB-/	.	2f\	.
2FF/	.	[2f\	2a/
=26	=26-	=26	=26
1C	0ryy	2f\]	1g
.	.	2e\	.
1D	.	1f	1f
=27	=27-	=27	=27
1E-i	0ryy	2B-\	2.g/
.	.	1e-	.
.	.	.	4a/
2D\	.	.	2b-\
2BB-/	.	2d\	[2b-\
=28	=28	=28	=28
!	!LO:N:vis=0.	!	!
1F	0r	1c	2b-\]
.	.	.	2a/
1BB-	.	1B-	2b-\
.	.	.	[2g/
=29	=29-	=29	=29
1C	0ryy	2r	2g/]
.	.	2c\	2c/
1BB-	.	2F/	2.d/
.	.	[2B-\	.
.	.	.	4e/
=30	=30-	=30	=30
2AA/	0ryy	2B-\]	2f/
2FF/	.	2A/	1f
1C	.	1G	.
.	.	.	2e/
=31	=31	=31	=31
!	!LO:N:vis=0	!	!
[0FF	[y0C	0F	[0f
=32	=32-	=32	=32
0FF]	0C]yy	1r	0f]
.	.	[1c	.
=33	=33-	=33	=33
1r	0C	1c]	0r
1AA	.	1c	.
=34	=34	=34	=34
!	!LO:N:vis=0	!	!
0BB-	[y0F	0d	1f
.	.	.	1f
=35	=35-	=35	=35
1BB-	0F]yy	0d	1f
[1BB-	.	.	1f
=36	=36-	=36	=36
1BB-]	0F	1B-	0d
1D	.	1A	.
=37	=37	=37	=37
!	!LO:N:vis=0	!	!
0AA	[y0E	2r	[0c
.	.	2.A/	.
.	.	4B-\	.
.	.	2c\	.
=38	=38-	=38	=38
2r	0E]yy	2A/	1c]
2.AA/	.	1c	.
.	.	.	2r
4BB-/	.	.	.
2C/	.	2A/	[2c/
=39	=39-	=39	=39
2AA/	0E	0A	4c/]
.	.	.	4d/
1C	.	.	2e/
.	.	.	2c/
2AA/	.	.	[2e/
=40	=40	=40	=40
!	!LO:N:vis=0	!	!
0AA	[y0E	2r	2e/]
.	.	2.A/	2c/
.	.	.	[1c
.	.	4B-\	.
.	.	2c\	.
=41	=41-	=41	=41
2r	0E]yy	2A/	1c]
2.AA/	.	1c	.
.	.	.	2r
4BB-/	.	.	.
2C/	.	2A/	[2c/
=42	=42-	=42	=42
2AA/	0E	0A	4c/]
.	.	.	4d/
1C	.	.	2e/
.	.	.	2c/
2AA/	.	.	[2e/
=43	=43	=43	=43
!	!LO:N:vis=0.	!	!
0AA	[y0A	1r	2e/]
.	.	.	2c/
.	.	1E	1c
=44	=44-	=44	=44
2r	0A_yy	1F	1d
2.D\	.	.	.
.	.	1D	2r
4E\	.	.	.
2F\	.	.	[2f/
=45	=45-	=45	=45
2D\	0A]yy	1d	4f/]
.	.	.	4g/
1F	.	.	2a/
.	.	2d\	2f/
2D\	.	[2d\	[2a/
=46	=46	=46	=46
0D	0A	2d\]	2a/]
.	.	4c\	2f/
.	.	4B-\	.
.	.	2A/	1f
.	.	2d\	.
=47	=47-	=47	=47
1E	1G	2B-\	1g
.	.	2.c\	.
!	!LO:N:vis=1	!	!
1C	[y1A	.	1e
.	.	4B-\	.
.	.	4A/	.
.	.	4G/	.
=48	=48-	=48	=48
0D	1A]yy	0F	0f
.	1B-	.	.
=49	=49	=49	=49
!	!LO:N:vis=0.	!	!
[0C	[y0c	1G	0e
.	.	2r	.
.	.	2G/	.
=50	=50-	=50	=50
0C]	0c_yy	2A/	2r
.	.	2.c\	2g/
.	.	.	2a/
.	.	4B-\	.
.	.	2A/	[2cc\
=51	=51-	=51	=51
1C	0c]yy	2G/	4cc\]
.	.	.	4b-\
.	.	2F/	2a/
2r	.	1E	1g
2C/	.	.	.
=52	=52	=52	=52
!	!LO:N:vis=0.	!	!
2D\	0r	0D	2f/
2.F\	.	.	2.a/
4E\	.	.	4g/
2D\	.	.	2f/
=53	=53-	=53	=53
2C/	0ryy	2r	2e/
2BB-/	.	2D/	2d/
1AA	.	2E/	2.c/
.	.	2F/	.
.	.	.	4d/
=54	=54-	=54	=54
0GG	0ryy	1G	2e/
.	.	.	2d/
.	.	2r	2.g/
.	.	2D/	.
.	.	.	4f/
=55	=55	=55	=55
!	!LO:N:vis=0	!	!
1r	0r	2E/	2e/
.	.	2F/	2d/
1C	.	1G	2r
.	.	.	2g/
=56	=56-	=56	=56
2D\	0ryy	0r	2f/
2.F\	.	.	2.a/
4E\	.	.	4g/
2D\	.	.	2f/
=57	=57-	=57	=57
2C/	0A	2r	2e/
2BB-/	.	2D/	2d/
1AA	.	2E/	2.c/
.	.	2F/	.
.	.	.	4d/
=58	=58	=58	=58
0GG	0B-	0G	2e/
.	.	.	2d/
.	.	.	1g
=59	=59-	=59	=59
0D	1A	1r	0f
!	!LO:N:vis=1	!	!
.	[y1d	1A	.
=60	=60-	=60	=60
1r	1d]yy	1B-	1r
1F	1c	1A	1f
=61	=61	=61	=61
1D	0d	1A	1f
1BB-	.	[1B-	1f
=62	=62-	=62	=62
0D	1.d	1B-]	0f
.	.	1A	.
.	2c\	.	.
=63	=63-	=63	=63
0D	1B-	1r	0f
.	1A	1d	.
=64	=64	=64	=64
!	!LO:N:vis=0.	!	!
1E-	[y0G	1B-	1g
1C	.	1c	1e
=65	=65-	=65	=65
2C/	0G_yy	1c	2e/
1C	.	.	1e
.	.	2c\	.
2C/	.	[2c\	2e/
=66	=66-	=66	=66
2C/	0G]yy	2c\]	2e/
2C/	.	2c\	2e/
1C	.	1c	1g
=67	=67	=67	=67
[0C	[0c	1G	1e
.	.	2r	2r
.	.	[2E/	[2g/
=68	=68-	=68	=68
1C]	0c_	2E/]	2g/]
.	.	4D/	4f/
.	.	4E/	4g/
2r	.	2F/	2a/
[2E\	.	2E/	2g/
=69	=69-	=69	=69
2E\]	0c_	1C	1e
4D\	.	.	.
4E\	.	.	.
2F\	.	2r	2r
2E\	.	[2E/	[2g/
=70	=70	=70	=70
1C	0c]	2E/]	2g/]
.	.	4D/	4f/
.	.	4E/	4g/
2r	.	2F/	2a/
[2C/	.	[2E/	2g/
=71	=71-	=71	=71
!	!LO:N:vis=0	!	!
2C/]	[y0A	2E/]	1c
4BB-/	.	4D/	.
4C/	.	4E/	.
2D\	.	2F/	2r
2C/	.	2E/	[2c/
=72	=72-	=72	=72
1AA	0A]yy	1C	2c/]
.	.	.	4B-/
.	.	.	4c/
2D\	.	2r	2d/
[2AA/	.	[2c\	2c/
=73	=73	=73	=73
!	!LO:N:vis=1.	!	!
2AA/]	0r	2c\]	2A/
2C/	.	4B-\	2e/
.	.	4c\	.
4BB-/	.	2d\	2f/
2.C/	.	.	.
.	.	[2c\	[2e/
=74	=74-	=74	=74
1AA	1ryy	2c\]	2e/]
.	.	2A/	1a
1r	1G	1B-	.
.	.	.	2g/
=75	=75-	=75	=75
0r	1c	1A	1a
.	1B-	1r	2r
.	.	.	2g/
=76	=76	=76	=76
0r	1A	0r	1cc
.	2r	.	1b-
.	2G/	.	.
=77	=77-	=77	=77
0r	1c	0r	1a
.	1B-	.	2r
.	.	.	2g/
=78	=78-	=78	=78
0r	1A	0r	2a/
.	.	.	1f
.	2r	.	.
.	2B-\	.	2g/
=79	=79	=79	=79
0r	2c\	0r	1a
.	1d	.	.
.	.	.	2f/
.	2B-\	.	[2g/
=80	=80-	=80	=80
1r	1c	0r	2g/]
.	.	.	4f/
.	.	.	4e/
2r	2B-\	.	2d/
2FF/	2A/	.	[2c/
=81	=81-	=81	=81
2GG/	2G/	0r	2c/]
2AA/	2F/	.	1f
2BB-/	1G	.	.
2C/	.	.	2e/
=82	=82	=82	=82
1D	0F	0r	0f
2BB-/	.	.	.
[2F\	.	.	.
=83	=83-	=83	=83
!	!LO:N:vis=0	!	!
2F\]	0r	0A	0r
1D	.	.	.
2C/	.	.	.
=84	=84-	=84	=84
2D\	0ryy	1A	0r
2C/	.	.	.
2D\	.	2F/	.
2AA/	.	[2c\	.
=85	=85	=85	=85
!	!LO:N:vis=0.	!	!
2C/	0r	4c\]	0r
.	.	4B-\	.
2D\	.	1A	.
1BB-	.	.	.
.	.	2G/	.
=86	=86-	=86	=86
0AA	0ryy	1A	0r
.	.	2r	.
.	.	2F/	.
=87	=87-	=87	=87
2r	0ryy	2G/	0r
2BB-/	.	2B-\	.
2C/	.	2A/	.
2E-i\	.	2G/	.
=88	=88	=88	=88
!	!LO:N:vis=0.	!	!
2D\	0r	2.A/	0r
1C	.	.	.
.	.	4B-\	.
.	.	2c\	.
[2D\	.	2B-\	.
=89	=89-	=89	=89
4D\]	0ryy	2.A/	0r
4E\	.	.	.
4F\	.	.	.
4G\	.	4B-\	.
2.E\	.	4c\	.
.	.	4d\	.
.	.	[2B-\	.
4F\	.	.	.
=90	=90-	=90	=90
2G\	0ryy	4B-\]	0r
.	.	4A/	.
2D\	.	1d	.
1E	.	.	.
.	.	2c#i\	.
=91	=91	=91	=91
1D	0A	1d	1r
1D	.	1d	1f
=92	=92-	=92	=92
1D	1A	1d	1f
1D	1A	1d	1f
=93	=93-	=93	=93
1D	1A	1d	1f
1D	1F	1d	1f
=94	=94	=94	=94
[0C	0c	0e	0g
=95	=95-	=95	=95
0C]	1c	1r	1g
.	1c	[1A	1e
=96	=96-	=96	=96
0AA	1c	2A/]	2e/
.	.	4G/	1a
.	.	4F/	.
.	1c	2E/	.
.	.	[2A/	4g/
.	.	.	4f/
=97	=97	=97	=97
2r	0c	2A/]	1cc
2.FF/	.	4G/	.
.	.	4F/	.
.	.	2.c\	1f
4GG/	.	.	.
[2AA/	.	.	.
.	.	4d\	.
=98	=98-	=98	=98
2AA/]	0c	4e\	1r
.	.	4c\	.
4GG/	.	1f	.
4FF/	.	.	.
1C	.	.	[1cc
.	.	2e\	.
=99	=99-	=99	=99
1FF	1A	1f	1cc]
1C	1G	2r	1cc
.	.	2e\	.
=100	=100	=100	=100
2FF/	0c	2f\	1a
2FF/	.	2f\	.
1C	.	1e	1g
=101	=101-	=101	=101
1C	1G	1e	1cc
[1C	1G	[1e	[1cc
=102	=102-	=102	=102
1C]	1G	1e]	1cc]
1AA	1A	1e	1cc
=103	=103	=103	=103
1r	1r	1r	1r
1D	1A	1d	1a
=104	=104-	=104	=104
1D	1F	1f	1a
1E	1G	1e	1g
=105	=105-	=105	=105
1F	1A	1c	1f
1D	1F	1Bni	1f
=106	=106	=106	=106
0Cl	0Gl	0cl	0el
!!LO:LB:i:g=z
*	*rscale:1	*	*
=107||	=107||	=107||	=107||
*>B	*>B	*>B	*>B
*clefF4	*clefGv2	*clefGv2	*clefG2
*k[b-]	*k[b-]	*k[b-]	*k[b-]
*M2/1	*M2/1	*M2/1	*M2/1
*met(C|)	*met(O)	*met(C|)	*met(C|)
!!primary-mensuration: met(C|)
!!section: Crucifixus
!!!OMD: Crucifixus
*	*rscale:1/2	*	*
!	!LO:N:vis=0	!	!
1.F	0r	0r	0r
2E\	.	.	.
=108	=108-	=108	=108
1D	0ryy	0r	0r
2C/	.	.	.
[2D\	.	.	.
=109	=109-	=109	=109
2D\]	0A	0r	0r
4C/	.	.	.
4BB-/	.	.	.
1AA	.	.	.
=110	=110	=110	=110
!	!LO:N:vis=0.	!	!
0GG	[y0B-	0r	2r
.	.	.	1b-
.	.	.	2a/
=111	=111-	=111	=111
0r	0B-_yy	0r	1g
.	.	.	2f/
.	.	.	[2g/
=112	=112-	=112	=112
1r	0B-]yy	0r	2g/]
.	.	.	4f/
.	.	.	4e/
1G	.	.	1d
=113	=113	=113	=113
!	!LO:N:vis=0.	!	!
1.A	[y0c	2r	1c
.	.	1c	.
.	.	.	1r
2G\	.	2B-\	.
=114	=114-	=114	=114
1F	0c_yy	1A	0r
2E\	.	2G/	.
[2F\	.	[2A/	.
=115	=115-	=115	=115
2F\]	0c]yy	2A/]	1r
4E\	.	4G/	.
4D\	.	4F/	.
1C	.	1E	1A
=116	=116	=116	=116
!	!LO:N:vis=0.	!	!
1BB-	[y0d	0D	2B-/
.	.	.	1B-
2r	.	.	.
[2BB-/	.	.	4A/
.	.	.	4G/
=117	=117-	=117	=117
2BB-/]	0d_yy	1r	2F/
4AA/	.	.	2G/
4GG/	.	.	.
2FF/	.	1D	2A/
[2GG/	.	.	[2B-/
=118	=118-	=118	=118
2GG/]	0d]yy	1D	2B-/]
2AA/	.	.	1A
1BB-	.	1D	.
.	.	.	2G/
=119	=119	=119	=119
0AA	[0c	[0E	0A
=120	=120-	=120	=120
0C	0c_	0E]	1G
.	.	.	1A
=121	=121-	=121	=121
1FF	0c_	2r	2r
.	.	2.A/	2.c/
2FF/	.	.	.
.	.	4G/	4B-/
2FF/	.	[2F/	[2A/
=122	=122	=122	=122
2FF/	0c_	2F/]	2A/]
2FF/	.	4E/	4G/
.	.	4D/	4F/
1C	.	1E	1G
=123	=123-	=123	=123
1FF	0c_	2F/	2F/
.	.	2.c\	2.a/
2FF/	.	.	.
.	.	4B-\	4g/
2FF/	.	[2A/	[2f/
=124	=124-	=124	=124
2FF/	0c]	2A/]	2f/]
2FF/	.	4G/	4e/
.	.	4F/	4d/
2C/	.	1G	1e
2C/	.	.	.
=125	=125	=125	=125
0FF	1A	0F	1f
.	1c	.	2r
.	.	.	[2cc\
=126	=126-	=126	=126
2r	2c\	1r	4cc\]
.	.	.	4b-\
2FF/	2B-\	.	1a
2FF/	1A	1c	.
2FF/	.	.	4g/
.	.	.	4f/
=127	=127-	=127	=127
1C	0G	2c\	2e/
.	.	2c\	1f
1C	.	[1c	.
.	.	.	2e/
=128	=128	=128	=128
!	!LO:N:vis=0.	!	!
1r	[y0F	1c]	[0f
2.FF/	.	2.A/	.
4GG/	.	4B-\	.
=129	=129-	=129	=129
2AA/	0F_yy	2c\	0f]
1BB-	.	1d	.
2AA/	.	2c\	.
=130	=130-	=130	=130
2.BB-/	0F]yy	2.d\	0r
4AA/	.	4c\	.
1FF	.	1A	.
=131	=131	=131	=131
!	!LO:N:vis=0.	!	!
0r	[y0B-	2.G/	2.d/
.	.	4F/	4e/
.	.	2D/	2f/
.	.	[2E-i/	[2g/
=132	=132-	=132	=132
0r	0B-_yy	2E-/]	2g/]
.	.	2D/	2f/
.	.	1E-i	2.g/
.	.	.	4f/
=133	=133-	=133	=133
2.BB-/	0B-]yy	2.F/	1d
4C/	.	4E/	.
2D\	.	2F/	1r
[2E-\	.	[2G/	.
=134	=134	=134	=134
2E-\]	0B-	2G/]	0r
2D\	.	2F/	.
2.E-i\	.	2.G/	.
4D\	.	4F/	.
=135	=135-	=135	=135
0BB-	0d	0D	1r
.	.	.	2.f/
.	.	.	4g/
=136	=136-	=136	=136
1r	0c	0r	2a/
.	.	.	1b-
1F	.	.	.
.	.	.	2a/
=137	=137	=137	=137
2G\	0B-	1.d	2.b-\
1B-	.	.	.
.	.	.	4a/
.	.	.	1f
2A\	.	4c\	.
.	.	4B-\	.
=138	=138-	=138	=138
!	!LO:N:vis=0	!	!
2F\	0r	2A/	2r
1G	.	2d\	1b-
.	.	2B-\	.
2F\	.	2c\	2a/
=139	=139-	=139	=139
2D\	0ryy	1d	2f/
1E-i	.	.	1g
.	.	2c\	.
2D\	.	[2d\	2f/
=140	=140	=140	=140
!	!LO:N:vis=0.	!	!
2BB-/	0r	2d\]	2d/
1C	.	2G/	1e-i
.	.	2A/	.
[2BB-/	.	[2B-\	2d/
=141	=141-	=141	=141
2BB-/]	0ryy	2B-\]	2B-/
2.F\	.	4A/	1c
.	.	4G/	.
.	.	2.F/	.
4E\	.	.	.
[2D\	.	.	2d/
.	.	4G/	.
=142	=142-	=142	=142
2D\]	0ryy	2A/	1f
4C/	.	1B-	.
4BB-/	.	.	.
1C	.	.	1e-i
.	.	2A/	.
=143	=143	=143	=143
!	!LO:N:vis=0.	!	!
[0BB-	[y0B-	2B-\	1d
.	.	1G	.
.	.	.	2r
.	.	4F/	2f/
.	.	4E-i/	.
=144	=144-	=144	=144
0BB-]	0B-_yy	0D	2f/
.	.	.	2f/
.	.	.	2f/
.	.	.	2f/
=145	=145-	=145	=145
1D	0B-]yy	0r	1f
1E	.	.	1g
=146	=146	=146	=146
!	!LO:N:vis=0.	!	!
0F	[y0A	2r	1a
.	.	2F/	.
.	.	2.A/	2r
.	.	.	2f/
.	.	4B-\	.
=147	=147-	=147	=147
1r	0A_yy	2.c\	2a/
.	.	.	2b-\
.	.	4B-\	.
2r	.	2A/	2.cc\
2FF/	.	4G/	.
.	.	4F/	4b-\
=148	=148-	=148	=148
2AA/	0A]yy	1E	2a/
2BB-/	.	.	4g/
.	.	.	4f/
[1C	.	2r	[1e
.	.	[2c\	.
=149	=149	=149	=149
!	!LO:N:vis=0.	!	!
1C]	[y0G	2c\]	1e]
.	.	2c\	.
2C/	.	2c\	2e/
2C/	.	2c\	2e/
=150	=150-	=150	=150
2C/	0G_yy	2c\	2e/
2BB-/	.	2d\	2d/
2C/	.	2c\	2e/
2BB-/	.	2d\	[2g/
=151	=151-	=151	=151
2C/	0G]yy	2e\	4g/]
.	.	.	4f/
2BB-/	.	2d\	4e/
.	.	.	4d/
1C	.	1c	1e
=152	=152	=152	=152
!	!LO:N:vis=0	!	!
1FF	[y0F	1c	0f
2r	.	2r	.
2FF/	.	2C/	.
=153	=153-	=153	=153
2BB-/	0F]yy	2.D/	0r
2BB-/	.	.	.
.	.	4BB-/	.
2AA/	.	2C/	.
2BB-/	.	[2D/	.
=154	=154-	=154	=154
2C/	0E	2D/]	0r
2AA/	.	1C	.
1GG	.	.	.
.	.	2BB-/	.
=155	=155	=155	=155
0FF	0F	2C/	2r
.	.	2c\	2c/
.	.	2.d\	2f/
.	.	.	2f/
.	.	4B-\	.
=156	=156-	=156	=156
!	!LO:N:vis=0	!	!
0r	0r	2c\	2e/
.	.	1d	2f/
.	.	.	2g/
.	.	[2c\	2e/
=157	=157-	=157	=157
0r	0ryy	2c\]	1d
.	.	2B-\	.
.	.	2c\	2c/
.	.	2F/	2f/
=158	=158	=158	=158
!	!LO:N:vis=0.	!	!
0r	0r	2B-\	2.g/
.	.	2B-\	.
.	.	.	4e/
.	.	2A/	2f/
.	.	2B-\	[2g/
=159	=159-	=159	=159
0r	0ryy	2c\	2g/]
.	.	2A/	1f
.	.	1G	.
.	.	.	2e/
=160	=160-	=160	=160
2r	0ryy	0F	0f
2BB-/	.	.	.
2AA/	.	.	.
[2BB-/	.	.	.
=161	=161	=161	=161
2BB-/]	0F	0r	0r
2C/	.	.	.
1D	.	.	.
=162	=162-	=162	=162
!	!LO:N:vis=0	!	!
1C	[y0G	2r	0r
.	.	2c\	.
2r	.	2B-\	.
[2E-\	.	[2c\	.
=163	=163-	=163	=163
2E-\]	0G]yy	2c\]	0r
2D\	.	2d\	.
2C/	.	1e-i	.
2C/	.	.	.
=164	=164	=164	=164
!	!LO:N:vis=0	!	!
1F	[y0A	2d\	1f
.	.	2D/	.
1r	.	2C/	2e/
.	.	[2D/	[2f/
=165	=165-	=165	=165
0r	0A]yy	2D/]	2f/]
.	.	2E/	2g/
.	.	1F	1a
=166	=166-	=166	=166
1G	1B-	1G	1g
2F\	2A/	1r	1r
[2G\	[2B-\	.	.
=167	=167	=167	=167
2G\]	2B-\]	0r	0g
2A\	2c\	.	.
1B-	1d	.	.
=168	=168-	=168	=168
0A	0c	0r	1a
.	.	.	1a
=169	=169-	=169	=169
0r	2.B-\	0r	2.d/
.	4G/	.	4B-/
.	2A/	.	2c/
.	2B-\	.	2d/
=170	=170	=170	=170
0r	2G/	0r	2e/
.	2D/	.	1d
.	1E	.	.
.	.	.	2c#i/
=171	=171-	=171	=171
0r	1D	0r	1d
.	1d	.	2r
.	.	.	2d/
=172	=172-	=172	=172
0r	2.c\	0r	2.a/
.	4A/	.	4f/
.	2B-\	.	2g/
.	2c\	.	2a/
=173	=173	=173	=173
0r	2d\	0r	2b-\
.	2A/	.	1a
.	1B-	.	.
.	.	.	2g/
=174	=174-	=174	=174
0r	1A	0r	0a
.	2r	.	.
.	2D/	.	.
=175	=175-	=175	=175
0r	2.A/	0r	2.f/
.	4F/	.	4d/
.	2G/	.	2e/
.	2A/	.	2f/
=176	=176	=176	=176
0r	2B-\	0r	2d/
.	1A	.	2A/
.	.	.	1B-
.	2G/	.	.
=177	=177-	=177	=177
[0AA	0A	1E	0A
.	.	2E/	.
.	.	[2F/	.
=178	=178-	=178	=178
1AA]	0r	4F/]	0r
.	.	4E/	.
.	.	1A	.
2AA/	.	.	.
[2BB-/	.	[2G/	.
=179	=179	=179	=179
!	!LO:N:vis=0.	!	!
4BB-/]	0r	4G/]	0r
4AA/	.	4F/	.
1D	.	4E/	.
.	.	4D/	.
.	.	4E/	.
.	.	4D/	.
[2C/	.	[2A/	.
=180	=180-	=180	=180
4C/]	0ryy	2A/]	0r
4BB-/	.	.	.
4AA/	.	1G	.
4GG/	.	.	.
1AA	.	.	.
.	.	2F#i/	.
=181	=181-	=181	=181
1GG	0ryy	2.G/	0r
.	.	4F/	.
2r	.	4E/	.
.	.	4D/	.
[2C/	.	[2E/	.
=182	=182	=182	=182
4C/]	0A	2E/]	0r
4BB-/	.	.	.
4AA/	.	1D	.
4GG/	.	.	.
1AA	.	.	.
.	.	2C/	.
=183	=183-	=183	=183
1GG	0B-	1D	0r
2r	.	1d	.
[2G\	.	.	.
=184	=184-	=184	=184
4G\]	0c	1r	1r
4F\	.	.	.
4E\	.	.	.
4D\	.	.	.
1E	.	1G	1e
=185	=185	=185	=185
0D	0d	2.A/	2.f/
.	.	4G/	4g/
.	.	4F/	2a/
.	.	4E/	.
.	.	[2F/	[2a/
=186	=186-	=186	=186
0r	0c	2F/]	2a/]
.	.	4E/	2g/
.	.	4D/	.
.	.	2C/	2e/
.	.	[2E-i/	[2g/
=187	=187-	=187	=187
0r	0B-	2E-/]	2g/]
.	.	2D/	2f/
.	.	2BB-/	2d/
.	.	[2D/	[2f/
=188	=188	=188	=188
0r	0A	2D/]	2f/]
.	.	2E/	4e/
.	.	.	4d/
.	.	2.F/	[1c
.	.	4G/	.
=189	=189-	=189	=189
1AA	1E	1A	1c]
1AA	1E	[1A	[1c
=190	=190-	=190	=190
1AA	1E	2A/]	2c/]
.	.	2A/	2c/
1AA	1E	2A/	2c/
.	.	2A/	2c/
=191	=191	=191	=191
1BB-	1D	2F/	1d
.	.	2G/	.
1BB-	2.D/	2F/	1f
.	.	[2D/	.
.	4E/	.	.
=192	=192-	=192	=192
2BB-/	2F/	2D/]	1f
2AA/	1F	1C	.
1GG	.	.	1g
.	2E/	2BB-/	.
=193	=193-	=193	=193
0FF	0F	1C	1a
.	.	1c	1f
=194	=194	=194	=194
!	!LO:N:vis=0	!	!
2r	[y0c	2r	2r
2F\	.	2F/	2a/
2E\	.	2G/	2g/
[2F\	.	[2A/	2f/
=195	=195-	=195	=195
2F\]	0c]yy	2A/]	2a/
4E\	.	4G/	2b-\
4D\	.	4F/	.
1C	.	1E	1cc
=196	=196-	=196	=196
2r	[0A	2r	2r
2D\	.	2D/	2f/
2C/	.	2E/	2e/
[2D\	.	[2F/	2d/
=197	=197	=197	=197
2D\]	0A]	2F/]	2f/
4C/	.	4E/	2g/
4BB-/	.	4D/	.
1AA	.	1C	1a
=198	=198-	=198	=198
!	!LO:N:vis=0	!	!
2r	[y0F	1D	2r
2BB-/	.	.	2d/
2AA/	.	2r	2c/
[2BB-/	.	[2D/	2B-/
=199	=199-	=199	=199
2BB-/]	0F]yy	4D/]	2d/
.	.	4C/	.
4AA/	.	1C	2e/
4GG/	.	.	.
1FF	.	.	1f
.	.	[2c\	.
=200	=200	=200	=200
!	!LO:N:vis=0.	!	!
1C	[y0G	4c\]	2r
.	.	4G/	.
.	.	2G/	1e
2C/	.	2c\	.
2GG/	.	2B-\	2d/
=201	=201-	=201	=201
2C/	0G_yy	2.e-i\	2c/
2BB-/	.	.	2g/
.	.	4d\	.
2.E-\	.	2c\	2.g/
.	.	2B-\	.
4D\	.	.	4f/
=202	=202-	=202	=202
1C	0G]yy	2c\	2e/
.	.	1c	4d/
.	.	.	4c/
1GG	.	.	2d/
.	.	2Bni\	2d/
=203	=203	=203	=203
2r	0r	1.c	1c
1AA	.	.	.
.	.	.	1r
2GG/	.	2B-\	.
=204	=204-	=204	=204
!	!LO:N:vis=0.	!	!
2FF/	0ryy	2A/	0r
2C/	.	4G/	.
.	.	4F/	.
2.C/	.	4E/	.
.	.	4D/	.
.	.	[2G/	.
4BB-/	.	.	.
=205	=205-	=205	=205
2AA/	0ryy	2G/]	0r
4GG/	.	1F	.
4FF/	.	.	.
1GG	.	.	.
.	.	2E/	.
=206	=206	=206	=206
!	!LO:N:vis=0.	!	!
1FF	0r	2F/	1.cc
.	.	2A/	.
1r	.	2A/	.
.	.	2G/	2b-\
=207	=207-	=207	=207
0r	0ryy	2F/	2a/
.	.	2c\	4g/
.	.	.	4f/
.	.	2.c\	4e/
.	.	.	4d/
.	.	.	[2g/
.	.	4B-\	.
=208	=208-	=208	=208
0r	0ryy	2A/	2g/]
.	.	4G/	1f
.	.	4F/	.
.	.	1G	.
.	.	.	2e/
=209	=209	=209	=209
*	*M2/1	*	*
*	*met(C|)	*	*
*	*rscale:1	*	*
2r	0r	0F	1f
2FF/	.	.	.
2BB-/	.	.	2r
2AA/	.	.	2f/
=210	=210	=210	=210
2BB-/	1r	0r	1g
2C/	.	.	.
1AA	1F	.	1a
=211	=211	=211	=211
1GG	1G	1r	1b-
2r	1A	1F	2a/
[2D\	.	.	[2f/
=212	=212	=212	=212
2D\]	1B	2D/	2f/]
2E\	.	2G/	2g/
[1F	2A/	2F/	2a/
.	[2F/	2D/	2b-\
=213	=213	=213	=213
2F\]	2F/]	2.A/	1.cc
4E\	2G/	.	.
4D\	.	4B-\	.
2C/	2A/	2c\	.
2D\	2B-\	2F/	4b-\
.	.	.	4a/
=214	=214	=214	=214
2E\	2c\	2r	1g
2C/	1c	2.G/	.
1G	.	.	2r
.	.	4A/	.
.	2B-\	2B-\	[2g/
=215	=215	=215	=215
1C	1c	2G/	4g/]
.	.	.	4e/
.	.	2c\	2g/
2D\	2r	2A/	2f/
2C/	2G/	[2c\	2e/
=216	=216	=216	=216
2AA/	2A/	2c\]	2c/
2BB-/	2G/	4B-\	2d/
.	.	4A/	.
2C/	2E/	2G/	2e/
2FF/	2F/	2A/	[2c/
=217	=217	=217	=217
1C	2G/	2G/	4c/]
.	.	.	4d/
.	2C/	2.c\	4e/
.	.	.	4f/
2r	1c	.	2g/
.	.	4B-\	.
[2F\	.	4A/	2c/
.	.	4G/	.
=218	=218	=218	=218
4F\]	0r	2.F/	2.d/
4E\	.	.	.
1D	.	.	.
.	.	4G/	4e/
.	.	2A/	2.f/
4C/	.	2B-\	.
4BB-/	.	.	4g/
=219	=219	=219	=219
2AA/	1r	2.c\	4a/
.	.	.	4b-\
2BB-/	.	.	2.cc\
.	.	4B-\	.
[1C	2r	2.A/	.
.	.	.	4b-\
.	[2c\	.	[2a/
.	.	8G/L	.
.	.	8F/J	.
=220	=220	=220	=220
0C_	4c\]	2E/	2a/]
.	4B-\	.	.
.	1A	2F/	4g/
.	.	.	4f/
.	.	2G/	4e/
.	.	.	4f/
.	4G/	2C/	[2g/
.	4F/	.	.
=221	=221	=221	=221
1C]	2E/	[0c	2g/]
.	2F/	.	1f
1C	1G	.	.
.	.	.	2e/
=222	=222	=222	=222
[0FFl	[0Fl	0c]	[0fl
=223	=223	=223	=223
0FF]	0F]	0cl	0f]
*	*rscale:1	*	*
==	==	==	==
*-	*-	*-	*-
!!!RDF**kern: l=long note in original notation
!!!RDF**kern: i=editorial accidental
!!!RDF**kern: V=start of tuplet marker
!!!RDF**kern: Z=end of tuplet marker
!!!ENC:	Chris Gage 11-16-2012
!!!END:	2012/11/17/
!!!EED:	Jesse Rodin
!!!EEV:	2013/04/27/
!!!ONB:	Translated from MusicXML and edited on 2012/12/15/ by Craig Sapp
!!muse2ps: T^@{OPR}^u^@{ONM}{. }@{OTL}^C^@{COM}^i2I150v85,85,85,150Q16
